imagestudio/img/cover/dress.svg

<svg width="35" height="34" viewBox="0 0 35 34" fill="none" xmlns="http://www.w3.org/2000/svg">
<path d="M15.504 2.90383C16.152 3.09861 16.8234 3.20497 17.4998 3.22003C18.1752 3.20467 18.8453 3.09831 19.4922 2.90383C19.3705 3.33909 19.1097 3.72257 18.7497 3.99575C18.3896 4.26893 17.9501 4.4168 17.4981 4.4168C17.0462 4.4168 16.6066 4.26893 16.2466 3.99575C15.8865 3.72257 15.6257 3.33909 15.504 2.90383ZM20.2572 1.36023C19.635 1.36023 18.632 1.86003 17.4998 1.86003C16.3676 1.86003 15.3646 1.36023 14.7424 1.36023C14.3208 1.36023 14.0624 1.58803 14.0624 2.34963C14.0905 3.24034 14.464 4.08518 15.104 4.70533C15.744 5.32547 16.6002 5.67224 17.4913 5.67224C18.3825 5.67224 19.2387 5.32547 19.8786 4.70533C20.5186 4.08518 20.8922 3.24034 20.9202 2.34963C20.9202 1.58803 20.672 1.36023 20.2402 1.36023H20.2572Z" fill="#CA9E55"/>
<path fill-rule="evenodd" clip-rule="evenodd" d="M17.4956 3.40887C16.928 3.39624 16.3638 3.32088 15.8134 3.18443C15.9418 3.44251 16.1286 3.66912 16.3608 3.84527C16.688 4.09353 17.0874 4.22791 17.4981 4.22791C17.9089 4.22791 18.3083 4.09353 18.6355 3.84527C18.8677 3.66913 19.0544 3.44252 19.1828 3.18444C18.6336 3.32064 18.0706 3.39598 17.5041 3.40887L17.4956 3.40887ZM19.275 2.9656C19.3477 2.94611 19.4201 2.92552 19.4922 2.90383C19.4714 2.97824 19.4466 3.05113 19.4178 3.12222C19.2785 3.46698 19.0482 3.76927 18.7497 3.99575C18.3896 4.26893 17.9501 4.4168 17.4981 4.4168C17.0462 4.4168 16.6066 4.26893 16.2466 3.99575C15.9481 3.76927 15.7178 3.46697 15.5784 3.12222C15.5497 3.05113 15.5248 2.97824 15.504 2.90383C15.5762 2.92551 15.6486 2.9461 15.7213 2.96559C16.3016 3.12116 16.8987 3.20665 17.4998 3.22003C18.0999 3.20638 18.6958 3.1209 19.275 2.9656ZM13.8735 2.34963C13.8735 1.95518 13.9389 1.65609 14.0947 1.454C14.2601 1.23951 14.4967 1.17134 14.7424 1.17134C14.9203 1.17134 15.1168 1.20672 15.3198 1.25445C15.4631 1.28816 15.6179 1.33015 15.7777 1.37349C15.8439 1.39146 15.911 1.40965 15.9784 1.42758C16.446 1.55189 16.9598 1.67114 17.4998 1.67114C18.0399 1.67114 18.5536 1.55189 19.0213 1.42758C19.0887 1.40965 19.1558 1.39146 19.222 1.37349C19.3818 1.33015 19.5366 1.28816 19.6799 1.25445C19.8764 1.20823 20.0668 1.1736 20.2402 1.17145L20.2572 1.17134C20.5007 1.17438 20.7315 1.24379 20.8924 1.45479C21.0468 1.65726 21.1091 1.95662 21.1091 2.34963V2.35558C21.0795 3.29533 20.6853 4.18669 20.0101 4.84098C19.3349 5.49527 18.4316 5.86113 17.4913 5.86113C16.5511 5.86113 15.6478 5.49527 14.9726 4.84098C14.2974 4.18669 13.9032 3.29533 13.8736 2.35558L13.8735 2.34963ZM20.2572 1.36023H20.2402C19.9781 1.36397 19.6503 1.45303 19.2749 1.55485C18.7576 1.6952 18.15 1.86003 17.4998 1.86003C16.8496 1.86003 16.242 1.6952 15.7247 1.55485C15.3412 1.45081 15.0073 1.36023 14.7424 1.36023C14.3208 1.36023 14.0624 1.58803 14.0624 2.34963C14.0905 3.24034 14.464 4.08518 15.104 4.70533C15.744 5.32547 16.6002 5.67224 17.4913 5.67224C18.3825 5.67224 19.2387 5.32547 19.8786 4.70533C20.5186 4.08518 20.8922 3.24034 20.9202 2.34963C20.9202 1.59808 20.6785 1.36622 20.2572 1.36023Z" fill="#CA9E55"/>
<path d="M14.3922 2.76783L15.6502 3.12823L15.759 3.15543C16.3323 3.26894 16.9154 3.32588 17.4998 3.32543C18.0843 3.32588 18.6673 3.26894 19.2406 3.15543L19.3494 3.12823L20.6074 2.76783L24.8982 3.83883L23.5858 8.21463C22.8004 10.8353 22.7487 13.6212 23.4362 16.2692L26.5744 28.3562C25.9388 28.2196 25.29 28.1534 24.6398 28.159C22.5284 28.159 19.9512 28.788 16.9762 30.0256C15.1402 30.7906 13.5082 31.1782 12.121 31.1782C9.25484 31.1782 8.12264 29.5054 7.70104 28.516C8.06144 27.2444 9.27184 23.2018 11.2982 16.5072C12.148 13.6947 12.148 10.6939 11.2982 7.88143L10.1014 3.83883L14.3922 2.76783ZM20.5836 1.36023L18.9754 1.81923C18.4896 1.91623 17.9953 1.9652 17.4998 1.96543C17.0044 1.96523 16.5101 1.91626 16.0242 1.81923L14.416 1.36023L9.77164 2.51963C9.59439 2.5644 9.42799 2.64444 9.28237 2.75498C9.13675 2.86552 9.01492 3.00428 8.92415 3.16297C8.83338 3.32166 8.77553 3.49702 8.75407 3.67858C8.73261 3.86013 8.74797 4.04415 8.79924 4.21963L10.0198 8.27243C10.7895 10.8292 10.7895 13.556 10.0198 16.1128C8.71764 20.4206 6.89184 26.4658 6.41584 28.1454C6.33326 28.44 6.35243 28.7539 6.47024 29.0362C6.89524 30.0936 8.31984 32.5382 12.121 32.5382C13.5524 32.5382 15.3238 32.1982 17.4998 31.2802C20.672 29.9576 22.9772 29.519 24.6398 29.519C26.3024 29.519 27.2782 29.9406 27.8868 30.369C27.9427 30.4081 28.0091 30.4294 28.0772 30.4302C28.1297 30.4318 28.1817 30.4212 28.2294 30.3992C28.277 30.3773 28.319 30.3446 28.3519 30.3038C28.3848 30.263 28.4078 30.2151 28.4192 30.1639C28.4305 30.1127 28.4299 30.0595 28.4172 30.0086L24.752 15.9258C24.1274 13.5192 24.1744 10.9874 24.888 8.60563L26.2004 4.22983C26.2517 4.05435 26.2671 3.87033 26.2456 3.68878C26.2242 3.50722 26.1663 3.33186 26.0755 3.17317C25.9848 3.01448 25.8629 2.87572 25.7173 2.76518C25.5717 2.65464 25.4053 2.5746 25.228 2.52983L20.5836 1.36023Z" fill="#CA9E55"/>
<path fill-rule="evenodd" clip-rule="evenodd" d="M15.6502 3.12823L14.3922 2.76783L10.1014 3.83883L11.2982 7.88143C12.148 10.6939 12.148 13.6947 11.2982 16.5072C9.27184 23.2018 8.06144 27.2444 7.70104 28.516C8.12264 29.5054 9.25484 31.1782 12.121 31.1782C13.5082 31.1782 15.1402 30.7906 16.9762 30.0256C19.9512 28.788 22.5284 28.159 24.6398 28.159C25.1852 28.1543 25.7295 28.2001 26.266 28.2956C26.3691 28.314 26.4719 28.3342 26.5744 28.3562L23.4362 16.2692C22.7487 13.6212 22.8004 10.8353 23.5858 8.21463L24.8982 3.83883L20.6074 2.76783L19.3494 3.12823L19.2406 3.15543C18.6673 3.26894 18.0843 3.32588 17.4998 3.32543C16.9154 3.32588 16.3323 3.26894 15.759 3.15543L15.6502 3.12823ZM20.6125 3.06112L24.5416 4.04183L23.3145 8.13324C22.5141 10.8035 22.4614 13.6422 23.162 16.3404L26.1879 27.9949C25.6761 27.9112 25.1578 27.8713 24.6387 27.8757C22.4757 27.8759 19.8599 28.5192 16.8674 29.764C15.0521 30.5204 13.4583 30.8949 12.121 30.8949C10.7475 30.8949 9.81008 30.4956 9.16869 29.9948C8.56422 29.5229 8.20719 28.9485 8.0015 28.4954C8.39273 27.1259 9.59213 23.1217 11.5694 16.5893C12.4352 13.7237 12.4353 10.666 11.5697 7.80031C11.5698 7.80059 11.5696 7.80004 11.5697 7.80031L10.4571 4.04208L14.3872 3.06112M20.579 1.06689L25.2972 2.25508C25.5114 2.30917 25.7127 2.40594 25.8886 2.5395C26.0646 2.67307 26.2118 2.84074 26.3215 3.03249C26.4312 3.22424 26.5011 3.43614 26.527 3.65552C26.5529 3.8749 26.5344 4.09725 26.4724 4.30929L26.4718 4.31123L25.1595 8.68695C24.4607 11.0191 24.4146 13.4982 25.0263 15.8546L28.6923 29.9405C28.7154 30.0338 28.7166 30.1313 28.6958 30.2251C28.675 30.319 28.6328 30.4068 28.5724 30.4817C28.5121 30.5565 28.4352 30.6164 28.3479 30.6566C28.2612 30.6965 28.1666 30.7159 28.0712 30.7135C27.9471 30.7115 27.8264 30.6724 27.7246 30.6013L27.7238 30.6007C27.1674 30.2091 26.2498 29.8024 24.6398 29.8024C23.0259 29.8024 20.7589 30.2285 17.6097 31.5414C15.4065 32.4708 13.5976 32.8216 12.121 32.8216C8.16217 32.8216 6.65783 30.2615 6.20801 29.1435C6.06632 28.8028 6.04342 28.4243 6.14303 28.069C6.6199 26.3863 8.44697 20.3369 9.74858 16.031C10.5022 13.5275 10.5022 10.8576 9.74855 8.35414C9.74854 8.35413 9.74855 8.35415 9.74855 8.35414L8.52727 4.29909C8.46532 4.08705 8.44677 3.8647 8.4727 3.64532C8.49863 3.42594 8.56852 3.21404 8.67821 3.02229C8.78789 2.83054 8.93511 2.66287 9.11106 2.5293C9.28701 2.39574 9.48808 2.29902 9.70226 2.24492L14.4209 1.06698L16.0909 1.5436C16.5549 1.6355 17.0268 1.68189 17.4998 1.6821C17.9729 1.68187 18.4448 1.63548 18.9088 1.5436L20.579 1.06689ZM18.9754 1.81923C18.4896 1.91623 17.9953 1.9652 17.4998 1.96543C17.0044 1.96523 16.5101 1.91626 16.0242 1.81923L14.416 1.36023L9.77164 2.51963C9.59439 2.5644 9.42799 2.64444 9.28237 2.75498C9.13675 2.86552 9.01492 3.00428 8.92415 3.16297C8.83338 3.32166 8.77553 3.49702 8.75407 3.67858C8.73261 3.86013 8.74797 4.04415 8.79924 4.21963L10.0198 8.27243C10.7895 10.8292 10.7895 13.556 10.0198 16.1128C8.71764 20.4206 6.89184 26.4658 6.41584 28.1454C6.33326 28.44 6.35243 28.7539 6.47024 29.0362C6.89524 30.0936 8.31984 32.5382 12.121 32.5382C13.5524 32.5382 15.3238 32.1982 17.4998 31.2802C20.672 29.9576 22.9772 29.519 24.6398 29.519C26.3024 29.519 27.2782 29.9406 27.8868 30.369C27.9427 30.4081 28.0091 30.4294 28.0772 30.4302C28.1297 30.4318 28.1817 30.4212 28.2294 30.3992C28.277 30.3773 28.319 30.3446 28.3519 30.3038C28.3848 30.263 28.4078 30.2151 28.4192 30.1639C28.4305 30.1127 28.4299 30.0595 28.4172 30.0086L24.752 15.9258C24.1274 13.5192 24.1744 10.9874 24.888 8.60563L26.2004 4.22983C26.2517 4.05435 26.2671 3.87033 26.2456 3.68878C26.2242 3.50722 26.1663 3.33186 26.0755 3.17317C25.9848 3.01448 25.8629 2.87572 25.7173 2.76518C25.5717 2.65464 25.4053 2.5746 25.228 2.52983L20.5836 1.36023L18.9754 1.81923Z" fill="#CA9E55"/>
<path d="M23.664 11.5024H11.084V14.2768H23.664V11.5024Z" fill="#CA9E55"/>
<path fill-rule="evenodd" clip-rule="evenodd" d="M10.8951 11.3135H23.8529V14.4657H10.8951V11.3135ZM23.664 11.5024V14.2768H11.084V11.5024H23.664Z" fill="#CA9E55"/>
</svg>

<svg width="35" height="34" fill="none" xmlns="http://www.w3.org/2000/svg"><path d="M15.504 2.904c.648.195 1.32.301 1.996.316a7.513 7.513 0 001.992-.316 2.07 2.07 0 01-3.988 0zm4.753-1.544c-.622 0-1.625.5-2.757.5-1.132 0-2.135-.5-2.758-.5-.421 0-.68.228-.68.99a3.43 3.43 0 006.858 0c0-.762-.248-.99-.68-.99h.017z" fill="#CA9E55"/><path fill-rule="evenodd" clip-rule="evenodd" d="M17.496 3.409a7.703 7.703 0 01-1.683-.225 1.881 1.881 0 003.37 0 7.702 7.702 0 01-1.679.225h-.008zm1.779-.443c.073-.02.145-.04.217-.062a2.07 2.07 0 01-3.988 0 7.584 7.584 0 001.996.316c.6-.014 1.196-.1 1.775-.254zm-5.401-.616c0-.395.065-.694.22-.896.166-.214.403-.283.648-.283.178 0 .375.036.578.083.143.034.298.076.458.12l.2.054c.468.124.982.243 1.522.243s1.054-.12 1.521-.243l.201-.055c.16-.043.315-.085.458-.119.196-.046.387-.08.56-.083h.017c.244.003.474.073.635.284.155.202.217.502.217.895v.006a3.62 3.62 0 01-7.235 0V2.35zm6.383-.99h-.017c-.262.004-.59.093-.965.195-.517.14-1.125.305-1.775.305-.65 0-1.258-.165-1.775-.305-.384-.104-.718-.195-.983-.195-.421 0-.68.228-.68.99a3.43 3.43 0 006.858 0c0-.752-.242-.984-.663-.99z" fill="#CA9E55"/><path d="M14.392 2.768l1.258.36.109.027a8.938 8.938 0 003.482 0l.108-.027 1.258-.36 4.291 1.07-1.312 4.377a14.96 14.96 0 00-.15 8.054l3.138 12.087a8.845 8.845 0 00-1.934-.197c-2.112 0-4.689.629-7.664 1.867-1.836.765-3.468 1.152-4.855 1.152-2.866 0-3.998-1.673-4.42-2.662.36-1.272 1.57-5.314 3.597-12.009.85-2.812.85-5.813 0-8.626L10.101 3.84l4.291-1.071zm6.192-1.408l-1.609.46a7.554 7.554 0 01-2.95 0l-1.609-.46-4.644 1.16a1.36 1.36 0 00-.973 1.7l1.22 4.052a13.6 13.6 0 010 7.84c-1.301 4.309-3.127 10.354-3.603 12.033a1.36 1.36 0 00.054.891c.425 1.058 1.85 3.502 5.651 3.502 1.431 0 3.203-.34 5.379-1.258 3.172-1.322 5.477-1.761 7.14-1.761 1.662 0 2.638.422 3.247.85a.34.34 0 00.19.061.338.338 0 00.34-.421l-3.665-14.083a13.6 13.6 0 01.136-7.32L26.2 4.23a1.359 1.359 0 00-.972-1.7l-4.644-1.17z" fill="#CA9E55"/><path fill-rule="evenodd" clip-rule="evenodd" d="M15.65 3.128l-1.258-.36-4.29 1.07 1.196 4.043c.85 2.813.85 5.814 0 8.626-2.026 6.695-3.237 10.737-3.597 12.009.422.99 1.554 2.662 4.42 2.662 1.387 0 3.02-.387 4.855-1.152 2.975-1.238 5.552-1.867 7.664-1.867a8.844 8.844 0 011.934.197L23.436 16.27a14.96 14.96 0 01.15-8.054l1.312-4.376-4.29-1.071-1.259.36-.108.027a8.927 8.927 0 01-1.741.17 8.928 8.928 0 01-1.741-.17l-.109-.027zm4.963-.067l3.929.98-1.228 4.092c-.8 2.67-.853 5.51-.152 8.207l3.026 11.655a9.12 9.12 0 00-1.55-.12c-2.162 0-4.778.644-7.77 1.889-1.816.756-3.41 1.13-4.747 1.13-1.373 0-2.31-.398-2.952-.9A3.987 3.987 0 018 28.496c.392-1.37 1.591-5.373 3.568-11.906a15.196 15.196 0 000-8.789l-1.112-3.758 3.93-.98m6.192-1.995l4.718 1.188a1.644 1.644 0 011.175 2.054v.002l-1.313 4.376a13.316 13.316 0 00-.133 7.168l3.666 14.085a.623.623 0 01-.62.773.623.623 0 01-.347-.112h-.001c-.557-.392-1.474-.799-3.084-.799-1.614 0-3.881.427-7.03 1.74-2.204.929-4.012 1.28-5.489 1.28-3.959 0-5.463-2.56-5.913-3.679a1.643 1.643 0 01-.065-1.074c.477-1.683 2.304-7.732 3.606-12.038a13.316 13.316 0 000-7.677L8.527 4.3a1.643 1.643 0 011.175-2.054l4.719-1.178 1.67.477a7.269 7.269 0 002.818 0l1.67-.477zm-1.604.752a7.554 7.554 0 01-2.95 0l-1.609-.459-4.644 1.16a1.36 1.36 0 00-.973 1.7l1.22 4.052a13.6 13.6 0 010 7.84c-1.301 4.309-3.127 10.354-3.603 12.033a1.36 1.36 0 00.054.891c.425 1.058 1.85 3.502 5.651 3.502 1.431 0 3.203-.34 5.379-1.258 3.172-1.322 5.477-1.761 7.14-1.761 1.662 0 2.638.422 3.247.85a.34.34 0 00.19.061.338.338 0 00.34-.421l-3.665-14.083a13.6 13.6 0 01.136-7.32L26.2 4.23a1.359 1.359 0 00-.972-1.7l-4.644-1.17-1.609.46z" fill="#CA9E55"/><path d="M23.664 11.502h-12.58v2.775h12.58v-2.775z" fill="#CA9E55"/><path fill-rule="evenodd" clip-rule="evenodd" d="M10.895 11.313h12.958v3.153H10.895v-3.152zm12.769.19v2.774h-12.58v-2.775h12.58z" fill="#CA9E55"/></svg>
